cssgg/microsoft.svg

<svg viewBox="0 0 24 24" xmlns="http://www.w3.org/2000/svg"><g><path d="M3 3h8v8H3V3Z"/><path d="M3 13h8v8H3v-8Z"/><path d="M13 3h8v8h-8V3Z"/><path d="M13 13h8v8h-8v-8Z"/></g></svg>

<svg
  width="24"
  height="24"
  viewBox="0 0 24 24"
  fill="none"
  xmlns="http://www.w3.org/2000/svg"
>
  <path d="M3 3H11V11H3V3Z" fill="currentColor" />
  <path d="M3 13H11V21H3V13Z" fill="currentColor" />
  <path d="M13 3H21V11H13V3Z" fill="currentColor" />
  <path d="M13 13H21V21H13V13Z" fill="currentColor" />
</svg>
